svgs/light/binary-lock.svg

<svg xmlns="http://www.w3.org/2000/svg" viewBox="0 0 640 512"><!--! Font Awesome Pro 6.6.0 by @fontawesome - https://fontawesome.com License - https://fontawesome.com/license (Commercial License) Copyright 2024 Fonticons, Inc. --><path d="M313.4 3c-4.2-3-9.5-3.8-14.4-2.2l-48 16c-8.4 2.8-12.9 11.9-10.1 20.2s11.9 12.9 20.2 10.1l26.9-9L288 192l-48 0c-8.8 0-16 7.2-16 16s7.2 16 16 16l64 0 64 0c8.8 0 16-7.2 16-16s-7.2-16-16-16l-48 0 0-176c0-5.1-2.5-10-6.6-13zM89.4 291c-4.2-3-9.5-3.8-14.4-2.2l-48 16c-8.4 2.8-12.9 11.9-10.1 20.2s11.9 12.9 20.2 10.1l26.9-9L64 480l-48 0c-8.8 0-16 7.2-16 16s7.2 16 16 16l64 0 64 0c8.8 0 16-7.2 16-16s-7.2-16-16-16l-48 0 0-176c0-5.1-2.5-10-6.6-13zM80 0C35.8 0 0 35.8 0 80l0 64c0 44.2 35.8 80 80 80l32 0c44.2 0 80-35.8 80-80l0-64c0-44.2-35.8-80-80-80L80 0zM32 80c0-26.5 21.5-48 48-48l32 0c26.5 0 48 21.5 48 48l0 64c0 26.5-21.5 48-48 48l-32 0c-26.5 0-48-21.5-48-48l0-64zM192 368l0 64c0 44.2 35.8 80 80 80l32 0c44.2 0 80-35.8 80-80l0-64c0-44.2-35.8-80-80-80l-32 0c-44.2 0-80 35.8-80 80zm80-48l32 0c26.5 0 48 21.5 48 48l0 64c0 26.5-21.5 48-48 48l-32 0c-26.5 0-48-21.5-48-48l0-64c0-26.5 21.5-48 48-48zm256-96c26.5 0 48 21.5 48 48l0 48-96 0 0-48c0-26.5 21.5-48 48-48zm-80 48l0 48c-17.7 0-32 14.3-32 32l0 128c0 17.7 14.3 32 32 32l160 0c17.7 0 32-14.3 32-32l0-128c0-17.7-14.3-32-32-32l0-48c0-44.2-35.8-80-80-80s-80 35.8-80 80zm0 80l160 0 0 128-160 0 0-128z"/></svg>

<svg xmlns="http://www.w3.org/2000/svg" viewBox="0 0 640 512"><!--! Font Awesome Pro 6.4.0 by @fontawesome - https://fontawesome.com License - https://fontawesome.com/license (Commercial License) Copyright 2023 Fonticons, Inc. --><path d="M313.4 3c-4.2-3-9.5-3.8-14.4-2.2l-48 16c-8.4 2.8-12.9 11.9-10.1 20.2s11.9 12.9 20.2 10.1l26.9-9V192H240c-8.8 0-16 7.2-16 16s7.2 16 16 16h64 64c8.8 0 16-7.2 16-16s-7.2-16-16-16H320V16c0-5.1-2.5-10-6.6-13zM89.4 291c-4.2-3-9.5-3.8-14.4-2.2l-48 16c-8.4 2.8-12.9 11.9-10.1 20.2s11.9 12.9 20.2 10.1l26.9-9V480H16c-8.8 0-16 7.2-16 16s7.2 16 16 16H80h64c8.8 0 16-7.2 16-16s-7.2-16-16-16H96V304c0-5.1-2.5-10-6.6-13zM80 0C35.8 0 0 35.8 0 80v64c0 44.2 35.8 80 80 80h32c44.2 0 80-35.8 80-80V80c0-44.2-35.8-80-80-80H80zM32 80c0-26.5 21.5-48 48-48h32c26.5 0 48 21.5 48 48v64c0 26.5-21.5 48-48 48H80c-26.5 0-48-21.5-48-48V80zM192 368v64c0 44.2 35.8 80 80 80h32c44.2 0 80-35.8 80-80V368c0-44.2-35.8-80-80-80H272c-44.2 0-80 35.8-80 80zm80-48h32c26.5 0 48 21.5 48 48v64c0 26.5-21.5 48-48 48H272c-26.5 0-48-21.5-48-48V368c0-26.5 21.5-48 48-48zm256-96c26.5 0 48 21.5 48 48v48H480V272c0-26.5 21.5-48 48-48zm-80 48v48c-17.7 0-32 14.3-32 32V480c0 17.7 14.3 32 32 32H608c17.7 0 32-14.3 32-32V352c0-17.7-14.3-32-32-32V272c0-44.2-35.8-80-80-80s-80 35.8-80 80zm0 80H608V480H448V352z"/></svg>
